img/iconsfont/cart.svg

<svg width="24" height="24" viewBox="0 0 24 24" fill="none" xmlns="http://www.w3.org/2000/svg">
<path fill-rule="evenodd" clip-rule="evenodd" d="M3.14909 3.40828C3.0468 3.40057 2.90689 3.39998 2.65422 3.39998H0.999976C0.502919 3.39998 0.0999756 2.99704 0.0999756 2.49998C0.0999756 2.00292 0.502919 1.59998 0.999976 1.59998H2.65422C2.66304 1.59998 2.67185 1.59998 2.68065 1.59998C2.897 1.59996 3.10606 1.59993 3.28433 1.61337C3.48114 1.62819 3.70392 1.66265 3.9329 1.76479C4.2586 1.91007 4.53684 2.1441 4.73579 2.4401C4.87565 2.64818 4.94777 2.86177 4.9961 3.05313C5.03987 3.22646 5.07568 3.43244 5.11272 3.64559C5.11423 3.65426 5.11574 3.66294 5.11725 3.67163L5.36951 5.12211L18.462 5.50966C18.9747 5.52482 19.4118 5.53775 19.7707 5.57727C20.1483 5.61885 20.5145 5.69626 20.8635 5.88221C21.398 6.16693 21.8299 6.61181 22.0986 7.15444C22.2742 7.50882 22.3407 7.87715 22.3711 8.25576C22.4 8.61566 22.4 9.05303 22.4 9.56587V9.63365C22.4 10.1157 22.4 10.5281 22.3735 10.8691C22.3454 11.2288 22.2841 11.5787 22.1238 11.9193C21.8773 12.443 21.4796 12.881 20.9821 13.1769C20.6585 13.3692 20.3162 13.464 19.9608 13.5265C19.624 13.5858 19.2135 13.6255 18.7337 13.6719L9.00572 14.6133C8.51395 14.6609 8.09355 14.7016 7.74393 14.7078C7.37536 14.7142 7.01356 14.6854 6.65274 14.5528C6.10602 14.352 5.63244 13.9912 5.29369 13.5174C5.07011 13.2047 4.94625 12.8635 4.85466 12.5065C4.76779 12.1678 4.69544 11.7517 4.61081 11.2649L3.34387 3.98004C3.30058 3.73111 3.27602 3.59336 3.2509 3.49391C3.24314 3.46317 3.23713 3.44401 3.23349 3.4334C3.22714 3.42628 3.2198 3.4201 3.21169 3.41506C3.20061 3.41329 3.1807 3.41066 3.14909 3.40828ZM5.68431 6.93221L6.37839 10.9232C6.47043 11.4524 6.53115 11.7977 6.59823 12.0593C6.66256 12.3101 6.71616 12.4121 6.75792 12.4705C6.88641 12.6502 7.06605 12.787 7.27342 12.8632C7.34082 12.888 7.45336 12.9126 7.71227 12.908C7.98222 12.9033 8.33129 12.8702 8.86593 12.8184L18.5273 11.8835C19.0491 11.833 19.3893 11.7994 19.6489 11.7537C19.8975 11.71 20.0013 11.6658 20.0621 11.6297C20.2509 11.5175 20.4017 11.3513 20.4952 11.1527C20.5254 11.0887 20.5593 10.9811 20.5789 10.7294C20.5993 10.4666 20.6 10.1248 20.6 9.60048C20.6 9.0436 20.5993 8.67904 20.5769 8.39979C20.5553 8.13117 20.518 8.01855 20.4857 7.9534C20.3837 7.74757 20.2199 7.57883 20.0172 7.47083C19.953 7.43664 19.8415 7.39595 19.5737 7.36645C19.2952 7.33579 18.9308 7.32432 18.3742 7.30785L5.68431 6.93221Z" fill="#262F56"/>
<path fill-rule="evenodd" clip-rule="evenodd" d="M8.49998 17.9C7.89246 17.9 7.39998 18.3925 7.39998 19C7.39998 19.6075 7.89246 20.1 8.49998 20.1C9.10749 20.1 9.59998 19.6075 9.59998 19C9.59998 18.3925 9.10749 17.9 8.49998 17.9ZM5.59998 19C5.59998 17.3983 6.89835 16.1 8.49998 16.1C10.1016 16.1 11.4 17.3983 11.4 19C11.4 20.6016 10.1016 21.9 8.49998 21.9C6.89835 21.9 5.59998 20.6016 5.59998 19Z" fill="#262F56"/>
<path fill-rule="evenodd" clip-rule="evenodd" d="M18 17.9C17.3925 17.9 16.9 18.3925 16.9 19C16.9 19.6075 17.3925 20.1 18 20.1C18.6075 20.1 19.1 19.6075 19.1 19C19.1 18.3925 18.6075 17.9 18 17.9ZM15.1 19C15.1 17.3983 16.3983 16.1 18 16.1C19.6016 16.1 20.9 17.3983 20.9 19C20.9 20.6016 19.6016 21.9 18 21.9C16.3983 21.9 15.1 20.6016 15.1 19Z" fill="#262F56"/>
</svg>

<svg width="24" height="24" fill="none" xmlns="http://www.w3.org/2000/svg"><path fill-rule="evenodd" clip-rule="evenodd" d="M3.15 3.408a7.57 7.57 0 00-.496-.008H1a.9.9 0 110-1.8h1.681c.216 0 .425 0 .603.013.197.015.42.05.649.152a1.9 1.9 0 01.803.675c.14.208.212.422.26.613a8.487 8.487 0 01.121.619l.253 1.45 13.092.388c.513.015.95.028 1.309.067.377.042.744.12 1.092.305A2.9 2.9 0 0122.1 7.154c.175.355.242.723.272 1.102.029.36.029.797.029 1.31v.068c0 .482 0 .894-.026 1.235-.029.36-.09.71-.25 1.05a2.9 2.9 0 01-1.142 1.258c-.323.192-.666.287-1.021.35-.337.059-.747.099-1.227.145l-9.728.941c-.492.048-.912.089-1.262.095-.369.006-.73-.023-1.091-.155a2.9 2.9 0 01-1.36-1.036c-.223-.312-.347-.653-.438-1.01a17.24 17.24 0 01-.244-1.242L3.344 3.98a7.569 7.569 0 00-.093-.486.774.774 0 00-.018-.06.1.1 0 00-.021-.019.775.775 0 00-.063-.007zm2.534 3.524l.694 3.991c.092.53.153.875.22 1.136.065.251.118.353.16.412a1.1 1.1 0 00.515.392c.068.025.18.05.44.045.27-.005.618-.038 1.153-.09l9.661-.934c.522-.051.862-.085 1.122-.13.248-.044.352-.088.413-.124a1.1 1.1 0 00.433-.477c.03-.064.064-.172.084-.424.02-.262.021-.604.021-1.129 0-.556 0-.921-.023-1.2-.022-.269-.059-.381-.091-.447a1.1 1.1 0 00-.469-.482c-.064-.034-.175-.075-.443-.105-.279-.03-.643-.042-1.2-.058l-12.69-.376zM8.5 17.9a1.1 1.1 0 100 2.2 1.1 1.1 0 000-2.2zM5.6 19a2.9 2.9 0 115.8 0 2.9 2.9 0 01-5.8 0zM18 17.9a1.1 1.1 0 100 2.2 1.1 1.1 0 000-2.2zM15.1 19a2.9 2.9 0 115.8 0 2.9 2.9 0 01-5.8 0z" fill="#262F56"/></svg>
